assets/symbols/mulberry/bright_room.svg

<svg height="850.394" viewBox="0 0 850.394 850.394" width="850.394" xmlns="http://www.w3.org/2000/svg"><path d="m229.31 246.08v355.05l-114.94 133.24-15.27-15.27v-598.99l14.09-8.61zm0 0v-.67h146.62l-9.18 32.88h115.02l-9.18-32.88h145.54v355.72h-388.82zm520.84-128.96v609.58l-17.66 6.73-114.22-132.38h-.14v-354.26h.82l117.47-136.17z" fill="#fff5b4"/><path d="m618.27 601.05 114.22 132.38-21.67 8.26-287.1.08h-315.74l6.39-7.4 114.94-133.24h388.82v-.08z" fill="#f6cc4b"/><path d="m736.42 110.62-117.47 136.17h-.82v-1.38h-145.54l-12.88-46.11h-70.9l-12.88 46.11h-146.62v.67l-116.12-134.58 8.61-5.26 302.74-.09h302.44z" fill="#fff"/><path d="m472.59 245.41 9.18 32.88h-115.02l9.18-32.88z" fill="#fbed24"/><path d="m423.84 199.3h35.87l12.88 46.11h-96.66l12.88-46.11z" fill="#fbed24"/><g fill="none"><g stroke="#231f20"><g stroke-width="18.761"><path d="m472.59 245.41h145.54v355.72h-388.82v-355.72h146.62"/><path d="m618.27 601.05 114.22 132.38 7.11 8.25-28.78.01-287.1.08h-315.74l6.39-7.4 114.94-133.24m.68-354.26-.68-.79-116.12-134.58-4.54-5.26h13.15l302.74-.09h315.74l-3.86 4.47-117.47 136.17m-519.85-148.74v651.91m651.05-652.08v651.91m-326.31-602.59v52.1"/><path d="m375.93 245.41-9.18 32.88h115.02l-9.18-32.88-12.88-46.11h-70.9z"/></g><path d="m422.8 349.69v142.96m-65.66-188.59-84.94 52.12m108.39-17.2-68.27 107.87m183.96-144.35 84.95 52.11m-108.4-17.19 68.27 107.87" stroke-width="6.253"/></g><path d="m0 0h850.394v850.394h-850.394z"/></g></svg>

<svg xmlns="http://www.w3.org/2000/svg" width="850.394" height="850.394" viewBox="0 0 850.394 850.394" overflow="visible"><path fill="#fff5b4" d="M229.31 246.08v355.05L114.37 734.37 99.1 719.1V120.11l14.09-8.61zM229.31 246.08v-.67h146.62l-9.18 32.88h115.02l-9.18-32.88h145.54V601.13H229.31zM750.15 117.12V726.7l-17.66 6.73-114.22-132.38h-.14V246.79h.82l117.47-136.17z"/><path fill="#f6cc4b" d="M618.27 601.05l114.22 132.38-21.67 8.26-287.1.08H107.98l6.39-7.4 114.94-133.24h388.82v-.08z"/><path fill="#fff" d="M736.42 110.62L618.95 246.79h-.82v-1.38H472.59l-12.88-46.11h-70.9l-12.88 46.11H229.31v.67L113.19 111.5l8.61-5.26 302.74-.09h302.44z"/><path fill="#fbed24" d="M472.59 245.41l9.18 32.88H366.75l9.18-32.88z"/><path fill="#fbed24" d="M423.84 199.3h35.87l12.88 46.11h-96.66l12.88-46.11z"/><g fill="none" stroke="#231f20"><path stroke-width="18.761" d="M472.59 245.41h145.54V601.13H229.31V245.41h146.62"/><path stroke-width="18.761" d="M618.27 601.05l114.22 132.38 7.11 8.25-28.78.01-287.1.08H107.98l6.39-7.4 114.94-133.24M229.99 246.87l-.68-.79L113.19 111.5l-4.54-5.26h13.15l302.74-.09h315.74l-3.86 4.47-117.47 136.17M99.1 98.05v651.91M750.15 97.88V749.79M423.84 147.2v52.1"/><path stroke-width="18.761" d="M375.93 245.41l-9.18 32.88h115.02l-9.18-32.88-12.88-46.11h-70.9z"/><path stroke-width="6.253" d="M422.8 349.69v142.96M357.14 304.06l-84.94 52.12M380.59 338.98l-68.27 107.87M496.28 302.5l84.95 52.11M472.83 337.42l68.27 107.87"/></g><path fill="none" d="M0 0h850.394v850.394H0z"/></svg>
